Pictures/blogr-logo.svg

<svg width="50" height="50" viewBox="0 0 50 50" fill="none" xmlns="http://www.w3.org/2000/svg">
<g id="Group 3 Copy 3">
<rect id="Rectangle" width="50" height="50" rx="15" fill="#E54D25"/>
<g id="b. 2">
<path id="b." fill-rule="evenodd" clip-rule="evenodd" d="M23.2066 34C26.4218 34 29.1424 31.5585 29.1424 27.5798C29.1424 23.6011 26.4218 21.1822 23.2066 21.1822C21.8576 21.1822 20.8233 21.5213 20.0814 22.2447V17H15V33.7739H19.834V32.7566C20.576 33.5931 21.6777 34 23.2066 34ZM21.9925 30.0213C20.8683 30.0213 19.9914 29.1848 19.9914 27.5798C19.9914 25.9747 20.8683 25.1609 21.9925 25.1609C23.1167 25.1609 23.9936 25.9747 23.9936 27.5798C23.9936 29.1848 23.1167 30.0213 21.9925 30.0213ZM36 31.0612C36 32.7793 34.7184 34 33.0321 34C31.3458 34 30.0642 32.7793 30.0642 31.0612C30.0642 29.3205 31.3458 28.1676 33.0321 28.1676C34.7184 28.1676 36 29.3205 36 31.0612Z" fill="white"/>
</g>
</g>
</svg>

<svg xmlns="http://www.w3.org/2000/svg" width="50" height="50" fill="none"><rect width="50" height="50" fill="#E54D25" rx="15"/><path fill="#fff" fill-rule="evenodd" d="M23.207 34c3.215 0 5.935-2.442 5.935-6.42 0-3.979-2.72-6.398-5.935-6.398-1.35 0-2.384.34-3.126 1.063V17H15v16.774h4.834v-1.017c.742.836 1.844 1.243 3.373 1.243Zm-1.215-3.979c-1.124 0-2-.836-2-2.441s.876-2.42 2-2.42c1.125 0 2.002.815 2.002 2.42s-.877 2.441-2.002 2.441ZM36 31.061C36 32.78 34.718 34 33.032 34s-2.968-1.22-2.968-2.939c0-1.74 1.282-2.893 2.968-2.893S36 29.32 36 31.06Z" clip-rule="evenodd"/></svg>
